X:22
T:Lord Eglinton's Reel
S:Petrie's Second Collection of Strathspey Reels and Country Dances &c.
Z:Steve Wyrick , 6/5/04
N:Petrie's Second Collection, page 8
% Gore's Index gives earliest publication as Robert Bremner's
% "Collection of Scots Reels or Country Dances..." 1751
L:1/8
M:C
R:Reel
K:Bb
B|FB (d/c/B) FBDB|FB (d/c/B) cCCB|FB (d/c/B) FBDF|E(GTF>E) DB,B,:|
% Petrie shows the last 2 notes in the last measure above
% as C naturals, but this doesn't match the chords in the bass line -SW
f|dfBf       dfbf|dfBd       cFFf|dfBf       dfbf|G(eTd>c) dBBf|
  dfBf       dfbf|dfBd       cFFf|gecg       fdBf|ecAe     dBB|]
